!!!!SEGMENT: pl-sa--80-a-ii-20--003_bohdanowicz-bazyli--symfonia-ex-d-polonese.krn
!!!cenid: 17xx:335
!!!COM: Bohdanowicz, Bazyli
!!!COM-rism: pe30009893
!!!CDT: 1740-1817
!!!CNT: Polish
!!!OTL: Symfonia ex D – Polonese
!!!PDT:
!!!AGN:
!!!SMS-siglum: PL-SA
!!!SMS-shelfmark: 80/A II 20
!!!NIFC-rismID: 1001034987
!!!URL-scan: http://bc.bdsandomierz.pl/dlibra/publication/1358/edition/1326/content
!!!ONB-nifc: UWAGA: części Symfonii: Allegro, Menueto, Polonese, Presto moderato. UWAGA: brak partii altówki
**kern	**kern	**kern	**dynam	**kern	**dynam	**kern	**kern	**kern	**kern	**dynam
*part7	*	*part6	*part6	*part5	*part5	*part4	*part3	*part2	*part1	*part1
*group	*group3	*group3	*group3	*group3	*group3	*group2	*group2	*group1	*group1	*group1
*staff8	*staff7	*staff6	*	*staff5	*	*staff4	*staff3	*staff2	*staff1	*
*I"Basso	*I"Viola	*I"Violino 2do	*	*I"Violino Primo	*	*I"Cornu 2do	*I"Corno Primo	*I"Oboe 2do	*I"Oboe Primo	*
*I'bc	*I'vla	*I'vl 2	*	*I'vl 1	*	*I'cor 2	*I'cor 1	*I'ob 2	*I'ob 1	*
*clefF4	*clefC3	*clefG2	*	*clefG2	*	*clefG2	*clefG2	*clefG2	*clefG2	*
*	*	*	*	*	*	*ITrd6c10	*ITrd6c10	*	*	*
*k[f#c#]	*k[f#c#]	*k[f#c#]	*	*k[f#c#]	*	*k[f#c#]	*k[f#c#]	*k[f#c#]	*k[f#c#]	*
*D:	*D:	*D:	*	*D:	*	*	*	*D:	*D:	*
*M3/4	*M3/4	*M3/4	*	*M3/4	*	*M3/4	*M3/4	*M3/4	*M3/4	*
=1	=1	=1	=1	=1	=1	=1	=1	=1	=1	=1
*	*	*	*	*	*	*	*	*	*2\right	*
!	!	!	!	!	!	!LO:TX:a:t=4	!	!	!	!
!	!	!	!	!	!	!	!	!LO:TX:a:t=P:problem:w źródle ta adnotacja zapisana na pięciolinii, przed pierwszym taktem	!LO:TX:a:t=P:problem:w źródle ta adnotacja zapisana na pięciolinii, przed pierwszym taktem	!
!	!	!	!	!LO:TX:a:t=P:problem:w źródle ta adnotacja zapisana na pięciolinii, przed pierwszym taktem	!	!	!	!	!	!
!LO:TX:a:i:t=Polonese	!	!LO:TX:a:i:t=Polonese	!	!LO:TX:a:i:t=Polonese	!	!LO:TX:a:i:t=Poloneſse	!LO:TX:a:i:t=Polonese	!LO:TX:a:i:t=Polonese	!LO:TX:a:i:t=Polonese	!LO:DY:a:t=p&colon;
!	!LO:TX:a:t=P:problem:partia wskazana na karcie tytułowej lecz w zachowanych głosach brak tej partii	!	!	!	!	!	!	!	!	!
!	!	!	!	!	!	!	!LO:N:vis=00	!LO:N:vis=00	!	!
!	!	!	!	!	!	!LO:TX:a:t=P:problem:w źródle ta adnotacja zapisana na pięciolinii, przed pierwszym taktem	!	!	!	!
!	!	!	!	!	!	!LO:N:vis=00	!	!	!	!
8D\L	2.ryy	8r	.	8r	.	0.r	0.r	0.r	[>2.dd\	p
!	!	!	!LO:DY:a:t=p&colon;	!	!LO:DY:a:t=p&colon;	!	!	!	!	!
8D\	.	4f#/	p	4a/	p	.	.	.	.	.
8D\	.	.	.	.	.	.	.	.	.	.
8D\	.	4f#/	.	4a/	.	.	.	.	.	.
8D\	.	.	.	.	.	.	.	.	.	.
8D\J	.	8f#/	.	8a/	.	.	.	.	.	.
=2	=2	=2	=2	=2	=2	=2	=2	=2	=2	=2
8D\L	2.ryy	8r	.	8r	.	.	.	.	2.dd\_>	.
8d\	.	4b/	.	4dd\	.	.	.	.	.	.
8D\	.	.	.	.	.	.	.	.	.	.
8d\	.	(<16a/LL	.	(>16cc#\LL	.	.	.	.	.	.
.	.	16g/JJ)	.	16b\JJ)	.	.	.	.	.	.
8D\	.	(<8g/L	.	(>8b\L	.	.	.	.	.	.
8d\J	.	8f#/J)	.	8a\J)	.	.	.	.	.	.
=3	=3	=3	=3	=3	=3	=3	=3	=3	=3	=3
8D\L	2.ryy	8r	.	8r	.	.	.	.	2.ddM\_>	.
8d\	.	4f#/	.	4a/	.	.	.	.	.	.
8D\	.	.	.	.	.	.	.	.	.	.
8d\	.	4f#/	.	4a/	.	.	.	.	.	.
8D\	.	.	.	.	.	.	.	.	.	.
8d\J	.	8f#/	.	8a/	.	.	.	.	.	.
=4	=4	=4	=4	=4	=4	=4	=4	=4	=4	=4
!	!	!	!	!	!	!	!	!	!	!LO:DY:a:t=for
8D\L	2.ryy	8r	.	8r	.	.	.	.	2.ddM\]	f
8d\	.	4g/	.	4b/	.	.	.	.	.	.
8D\	.	.	.	.	.	.	.	.	.	.
8d\	.	(16f#/LL	.	(<16a/LL	.	.	.	.	.	.
.	.	16e/JJ)	.	16g/JJ)	.	.	.	.	.	.
8D\	.	(<8e/L	.	(<8g/L	.	.	.	.	.	.
8d\J	.	8d/J)	.	8f#/J)	.	.	.	.	.	.
=5	=5	=5	=5	=5	=5	=5	=5	=5	=5	=5
!LO:TX:a:t=P:problem:w źródle takt 5 zapisany jako repetycja taktu 4	!	!	!	!	!	!	!	!	!	!
!	!	!	!LO:DY:a:t=for	!	!	!	!	!	!	!
8D\L	2.ryy	8r	f	8r	.	8d\	8f#\	8r	8r	.
!	!	!	!	!	!LO:DY:a:t=for	!	!	!	!	!
8d\	.	4dd\	.	4ff#\	f	4d\	4f#\	4dd\	4ff#\	.
8D\	.	.	.	.	.	.	.	.	.	.
!	!	!	!	!	!	!	!LO:N:vis=4	!	!	!
8d\	.	4dd\	.	4ff#\	.	4d\	8f#\	4dd\	4ff#\	.
!	!	!	!	!	!	!	!LO:N:vis=4	!	!	!
8D\	.	.	.	.	.	.	8f#\	.	.	.
8d\J	.	16gg\LL	.	(>16bb\LL	.	8d\	8d\	(>16gg\LL	16bb\LL	.
.	.	16ff#\JJ	.	16aa\JJ)	.	.	.	16ff#\JJ)	16aa\JJ	.
=6	=6	=6	=6	=6	=6	=6	=6	=6	=6	=6
!LO:TX:a:t=P:problem:mixed beam	!	!	!	!	!	!	!	!	!	!
8AA/L	2.ryy	(>16ff#\LL	.	(>16aa\LL	.	8A/L	8e\L	(>16ff#\LL	(>16aa\LL	.
.	.	16ee\	.	16gg\	.	.	.	16ee\	16gg\	.
8A\	.	16dd\	.	16ff#\	.	8A/	8e\	16dd\	16ff#\	.
.	.	16ee\JJ)	.	16gg\JJ)	.	.	.	16ee\JJ)	16gg\JJ)	.
!	!	!	!	!LO:TX:a:t=P:problem:mixed beam	!	!	!	!	!LO:TX:a:t=P:problem:mixed beam	!
!	!	!	!	!	!	!	!	!LO:TX:a:t=|:problem	!	!
!	!	!	!	!LO:TX:b:t=|:problem	!	!	!	!	!	!
8AA/	.	(>16a\LL	.	16a/LL	.	8A/	8e\	16a\LL	16a/LL	.
.	.	16ee\	.	(>16gg\	.	.	.	(>16ee\	(>16gg\	.
8A\	.	16dd\	.	16ff#\	.	8A/J	8e\J	16dd\	16ff#\	.
.	.	16ee\JJ)	.	16gg\JJ)	.	.	.	16ee\JJ)	16gg\JJ)	.
8AA/	.	(>8ee\L	.	(>8gg\L	.	4A/	4e\	(>8ee\L	(>8gg\L	.
8A\J	.	8ff#\J)	.	8aa\J)	.	.	.	8ff#\J)	8aa\J)	.
=7	=7	=7	=7	=7	=7	=7	=7	=7	=7	=7
!LO:TX:a:t=P:problem:mixed beam	!	!	!	!	!	!	!	!	!	!
8AA/L	2.ryy	8r	.	8r	.	8A/	8e\	8r	8r	.
8A\	.	4cc#\	.	4ee\	.	4A/	4e\	4cc#\	4ee\	.
8AA/	.	.	.	.	.	.	.	.	.	.
8A\	.	4cc#\	.	4ee\	.	4A/	4e\	4cc#\	4ee\	.
8AA/	.	.	.	.	.	.	.	.	.	.
8A\J	.	(>16ff#\LL	.	(>16aa\LL	.	8A/	8e\	16ff#\LL	(>16aa\LL	.
.	.	16ee\JJ)	.	16gg\JJ)	.	.	.	16ee\JJ	16gg\JJ)	.
=8	=8	=8	=8	=8	=8	=8	=8	=8	=8	=8
8D\L	2.ryy	(>16ee\LL	.	(>16gg\LL	.	8d\L	8f#\L	(>16ee\LL	(>16gg\LL	.
.	.	16dd\	.	16ff#\	.	.	.	16dd\	16ff#\	.
8d\	.	16cc#\	.	16ee\	.	8d\	8f#\	16cc#\)	16ee\	.
.	.	16dd\JJ)	.	16ff#\JJ)	.	.	.	16dd\JJ	16ff#\)	.
!	!	!	!	!LO:TX:a:t=P:problem:mixed beam	!	!	!	!	!	!
!	!	!	!	!	!	!	!	!LO:TX:a:t=|:problem	!LO:TX:a:t=|:problem	!
!	!	!	!	!LO:TX:b:t=|:problem	!	!	!	!	!	!
8D\	.	16a\LL	.	16a/LL	.	8d\	8f#\	16a\LL	16dd\	.
.	.	(>16dd\	.	(>16ff#\	.	.	.	(>16dd\	(>16ff#\	.
8d\	.	16cc#\	.	16ee\	.	8d\J	8f#\J	16cc#\	16ee\	.
.	.	16dd\JJ)	.	16ff#\JJ)	.	.	.	16dd\JJ)	16ff#\JJ)	.
8D\	.	4dd\	.	4ff#\	.	4d\	4f#\	4dd\	4ff#\	.
8d\J	.	.	.	.	.	.	.	.	.	.
!	!	!	!	!LO:LB:g=original	!	!	!	!	!	!
=9	=9	=9	=9	=9	=9	=9	=9	=9	=9	=9
*	*	*	*	*	*	*	*2\right	*	*	*
*	*	*	*	*	*	*	*tremolo	*	*	*
!LO:TX:a:t=P:problem:w źródle takt 9 zapisany jako repetycja taktu 8	!	!	!	!	!	!	!	!	!	!
!	!	!LO:TX:a:i:t=ſolo	!	!	!	!	!	!	!	!
8D\L	2.ryy	8r	.	8r	.	8d\L	8f#\L	8r	8r	.
8d\	.	4ff#\	.	4dd\	.	8d\	8f#\	4dd\	4ff#\	.
8D\	.	.	.	.	.	8d\	8f#\	.	.	.
8d\	.	(>16bb\LL	.	(>16gg\LL	.	8d\	8f#\	16gg\LL	16bb\LL	.
.	.	16aa\JJ)	.	16ff#\JJ)	.	.	.	16ff#\JJ	16aa\JJ	.
8D\	.	(>16aa\LL	.	(>16ff#\LL	.	8d\	8f#\	(>16ff#\LL	(>16aa\LL	.
.	.	16gg\	.	16ee\	.	.	.	16ee\	16gg\	.
8d\J	.	16ff#\	.	16dd\	.	8d\J	8f#\J	16dd\	16ff#\)	.
.	.	16gg\JJ)	.	16ff#\JJ)	.	.	.	16ee\JJ)	16gg\JJ	.
*	*	*	*	*	*	*	*Xtremolo	*	*	*
!	!	!LO:LB:g=original	!	!	!	!	!	!	!LO:LB:g=original	!
=10	=10	=10	=10	=10	=10	=10	=10	=10	=10	=10
!LO:TX:a:t=P:problem:mixed beam	!	!	!	!	!	!	!	!	!	!
8AA/L	2.ryy	8r	.	8r	.	8A/L	8e\L	8r	8r	.
8A\	.	4ee\	.	4cc#\	.	8A/	8e\	4cc#\	4ee\	.
8AA/	.	.	.	.	.	8A/	8e\	.	.	.
8A\J	.	(>16aa\LL	.	(>16ff#\LL	.	8A/J	8e\J	(>16ff#\LL	(>16aa\LL	.
.	.	16gg\JJ)	.	16ee\JJ)	.	.	.	16ee\JJ)	16gg\JJ)	.
8D\L	.	(>8gg\L	.	(>8ee\L	.	4A/	4d\	(>8ee\L	(>8gg\L	.
8d\J	.	8ff#\J)	.	8dd\J)	.	.	.	8dd\J)	8ff#\J)	.
!LO:LB:g=original	!	!	!	!	!	!	!	!LO:LB:g=original	!	!
=11	=11	=11	=11	=11	=11	=11	=11	=11	=11	=11
!LO:TX:a:t=P:problem:mixed beam	!	!	!	!	!	!	!	!	!	!
8D\L	2.ryy	8ff# 8a 8d/	.	8ff#L 8a 8d/	.	8D/L	8D/L	8a/	4ff#\	.
8D\	.	4dd\	.	8ff#J 8a 8d/	.	8D/	8D/	8r	.	.
8G\	.	.	.	16bb\LL	.	8D/	8D/	8b/	(>8bb\L	.
.	.	.	.	16gg\J	.	.	.	.	.	.
.	.	.	.	16qqaa/LL	.	.	.	.	.	.
.	.	.	.	16qqgg/	.	.	.	.	.	.
.	.	.	.	16qqff#/JJ	.	.	.	.	.	.
8G\	.	4dd\	.	8gg\J	.	8D/	8D/	4b/	8gg\J)	.
8GG/	.	.	.	16ee\LL	.	8D/	8D/	.	16ee\LL	.
.	.	.	.	16dd\	.	.	.	.	16dd\	.
8G\J	.	8dd\	.	16cc#\	.	8D/J	8D/J	8b/	16cc#\	.
.	.	.	.	16b\JJ	.	.	.	.	16b\JJ	.
=12	=12	=12	=12	=12	=12	=12	=12	=12	=12	=12
4A\	2.ryy	8a/L	.	(>16a\LL	.	4A/	4A/	8a/L	(>16a\LL	.
.	.	.	.	16gg\)	.	.	.	.	16gg\)	.
!	!	!	!	!	!	!	!	!	!LO:TX:a:t=|:problem	!
.	.	16g/L	.	16ee'\	.	.	.	(<16g/L	16ee\	.
!	!	!	!	!	!	!	!	!	!LO:TX:a:t=|:problem	!
.	.	16e/JJ	.	16cc#'\JJ	.	.	.	16e/JJ)	16cc#\JJ	.
.	.	(<8qqe/	.	(<8qqcc#/	.	.	.	(<8qqe/	8qqcc#/	.
*	*	*	*	*2\right	*	*	*	*	*	*
8d\L	.	2f#/)	.	2dd\)	.	8d\L	8d\L	2f#/)	2dd\	.
8A\J	.	.	.	.	.	8A\J	8A\J	.	.	.
4D\	.	.	.	.	.	4D/	4D/	.	.	.
!	!	!	!	!	!	!LO:LB:g=original	!	!	!	!
=13||;	=13	=13||;	=13	=13||;	=13	=13:||:	=13||;	=13||;	=13||;	=13
!	!	!	!LO:DY:a:t=for	!LO:TX:a:i:t=ſolo	!	!	!	!	!	!
8D\L	2.ryy	4.dd\	f	4.ff#\	.	8r	8r	4dd\	4ff#\	.
8d\	.	.	.	.	.	8F#/L	8d\L	.	.	.
8D\	.	.	.	.	.	8F#/	8d\	8r	8r	.
!	!	!	!	!	!	!	!	!LO:TX:a:t=|:problem	!LO:TX:a:t=|:problem	!
8d\J	.	16ff#\LL	.	16aa\LL	.	8F#/J	8d\J	8dd\	8ff#\	.
.	.	16dd\JJ	.	16ff#\JJ	.	.	.	.	.	.
!LO:TX:a:t=P:problem:mixed beam	!	!	!	!	!	!	!	!	!	!
8AA/L	.	(>8dd\L	.	(>8ff#\L	.	4A/	4e\	(>8dd\L	(>8ff#\L	.
8A\J	.	8cc#\J)	.	8ee\J)	.	.	.	8cc#\J)	8ee\J)	.
=14	=14	=14	=14	=14	=14	=14	=14	=14	=14	=14
8GG#X/L	2.ryy	(>16cc#\LL	.	(>16ee\LL	.	8r	8r	(>16cc#\LL	(>16ee\LL	.
.	.	16b\JJ)	.	16dd\JJ)	.	.	.	16b\J)	16dd\J)	.
!	!	!	!	!	!	!	!	!LO:TX:a:t=|:problem	!LO:TX:a:t=|:problem	!
8GG#/	.	4b\	.	4dd\	.	8d\L	8f#\L	8b\J	8dd\J	.
8GG#/	.	.	.	.	.	8d\	8f#\	8r	8r	.
!	!	!	!	!	!	!	!	!	!LO:TX:a:t=|:problem	!
8GG#/J	.	(>16ee\LL	.	(>16ff#\LL	.	8d\J	8f#\J	8b\	8dd\	.
.	.	16b\JJ)	.	16dd\JJ)	.	.	.	.	.	.
!LO:TX:a:t=P:problem:mixed beam	!	!	!	!	!	!	!	!	!	!
8AA/L	.	(>8b\L	.	(>8dd\L	.	4A/	4e\	(>8b\L	(>8dd\L	.
8A\J	.	8a\J)	.	8cc#\J)	.	.	.	8a\J)	8cc#\J)	.
=15	=15	=15	=15	=15	=15	=15	=15	=15	=15	=15
8E\L	2.ryy	(<16a/LL	.	(>16cc#\LL	.	4e\	4e\	(<16a/LL	(>16cc#\LL	.
.	.	16g#X/J	.	16b\J)	.	.	.	16g#X/J)	16b\J)	.
!	!	!	!	!	!	!	!	!LO:TX:b:t=|:problem	!LO:TX:a:t=|:problem	!
!	!	!LO:TX:b:t=|:problem	!	!	!	!	!	!	!	!
8E\	.	8g#/J)	.	8b'\J	.	.	.	8g#/J	8b\J	.
8E\	.	(>16b\LL	.	(>16dd\LL	.	4r	4r	(>16b\LL	(>16dd\LL	.
.	.	16a\	.	16cc#\)	.	.	.	16a\)	16cc#\)	.
8E\	.	16a\	.	(>16cc#\	.	.	.	(>16a\	(>16dd\	.
.	.	16cc#\JJ)	.	16ee\JJ)	.	.	.	16cc#\JJ)	16ee\JJ)	.
8E\	.	(>16cc#\LL	.	(>16ee\LL	.	4r	4r	(>16cc#\LL	(>16ee\LL	.
.	.	16b\)	.	16dd\)	.	.	.	16b\)	16dd\)	.
8E\J	.	(>16dd\	.	(>16ff#\	.	.	.	(>16dd\	(>16gg\	.
.	.	16cc#\JJ)	.	16ee\JJ)	.	.	.	16cc#\JJ)	16ee\JJ)	.
=16	=16	=16	=16	=16	=16	=16	=16	=16	=16	=16
4E\	2.ryy	(>16cc#\LL	.	(>16ee\LL	.	4e\	4e\	(<16cc#/LL	(>16ee\LL	.
.	.	16b\)	.	16dd\)	.	.	.	16b/	16dd\)	.
!	!	!LO:TX:a:t=|:problem	!	!	!	!	!	!	!LO:TX:a:t=|:problem	!
.	.	16a\	.	16cc#'\	.	.	.	16a/)	16cc#\	.
!	!	!LO:TX:a:t=|:problem	!	!	!	!	!	!LO:TX:b:t=|:problem	!LO:TX:a:t=|:problem	!
.	.	16g#X\JJ	.	16b'\JJ	.	.	.	16g#X/JJ	16b\JJ	.
.	.	8qqg#/	.	8qqb/	.	.	.	8qqg#/	8qqb/	.
8A\L	.	2a/	.	2a/	.	8A/L	8A/L	2a/	2a/	.
8E\J	.	.	.	.	.	8A/J	8A/J	.	.	.
4AA/	.	.	.	.	.	4A/	4A/	.	.	.
!	!	!	!	!LO:LB:g=original	!	!	!	!	!	!
=17	=17	=17	=17	=17	=17	=17	=17	=17	=17	=17
*2\right	*	*	*	*	*	*	*	*	*	*
*tremolo	*	*	*	*	*	*	*	*	*	*
!	!	!	!	!	!	!LO:TX:a:t=2	!	!	!	!
!	!	!	!	!	!	!LO:N:vis=0	!LO:N:vis=0	!LO:N:vis=0	!LO:N:vis=0	!
8D\L	2.ryy	(<4f#/	.	[>4a\	.	1.r	1.r	1.r	1.r	.
8D\	.	.	.	.	.	.	.	.	.	.
8D\	.	16f#/LL	.	16a\LL]	.	.	.	.	.	.
.	.	16b/	.	(>16dd\	.	.	.	.	.	.
8D\	.	16a/)	.	16cc#\	.	.	.	.	.	.
!	!	!	!	!LO:TX:a:t=|:problem	!	!	!	!	!	!
.	.	16gn/JJ	.	16b\JJ)	.	.	.	.	.	.
8D\	.	8g/L	.	(>8b\L	.	.	.	.	.	.
8D\J	.	8f#/J	.	8a\J)	.	.	.	.	.	.
*Xtremolo	*	*	*	*	*	*	*	*	*	*
!	!	!LO:LB:g=original	!	!	!	!	!	!	!	!
=18	=18	=18	=18	=18	=18	=18	=18	=18	=18	=18
8D\	2.ryy	8r	.	8r	.	.	.	.	.	.
8r	.	8f#/	.	8a/	.	.	.	.	.	.
8AA/	.	8r	.	8r	.	.	.	.	.	.
8r	.	8f#/	.	8g/	.	.	.	.	.	.
8D\	.	(<8e/L	.	(<8g/L	.	.	.	.	.	.
8r	.	8d/J)	.	8f#/J)	.	.	.	.	.	.
!	!	!	!	!	!	!	!	!	!LO:LB:g=original	!
=19	=19	=19	=19	=19	=19	=19	=19	=19	=19	=19
*	*	*	*	*	*	*	*tremolo	*	*	*
8D\L	2.ryy	[>4a\	.	[>4ff#\	.	8d\L	8f#\L	[>4ff#\	(>4aa\	.
8d\	.	.	.	.	.	8d\	8f#\	.	.	.
8D\	.	16a\LL]	.	16ff#\LL]	.	8d\	8f#\	16ff#\LL]	16aa\LL	.
.	.	16dd\	.	(>16bb\	.	.	.	(>16bb\	16ddd\)	.
8d\	.	16cc#\	.	16aa\)	.	8d\	8f#\	16aa\)	16ccc#\	.
!	!	!LO:TX:a:t=|:problem	!	!	!	!	!	!LO:TX:a:t=|:problem	!LO:TX:a:t=|:problem	!
!	!	!	!	!LO:TX:a:t=|:problem	!	!	!	!	!	!
.	.	16b\JJ	.	16gg\JJ	.	.	.	16gg\JJ	16bb\JJ	.
8D\	.	(>8b\L	.	(>8gg\L	.	8d\	8f#\	(>8gg\L	(>8bb\L	.
8d\J	.	8a\J)	.	8ff#\J)	.	8d\J	8f#\J	8ff#\J)	8aa\J)	.
*	*	*	*	*	*	*	*Xtremolo	*	*	*
!LO:LB:g=original	!	!	!	!	!	!	!LO:LB:g=original	!LO:LB:g=original	!	!
=20	=20	=20	=20	=20	=20	=20	=20	=20	=20	=20
!LO:TX:a:t=P:problem:mixed beam	!	!	!	!	!	!	!	!	!	!
8D\L	2.ryy	8r	.	8r	.	8d\	8f#\	8ff#\	8aa\	.
8d\	.	8a/	.	8ff#\	.	8r	8r	8r	8r	.
8AA/	.	8r	.	8r	.	8A/	8e\	8ee\	8gg\	.
8A\J	.	8g/	.	8ee\	.	8r	8r	8r	8r	.
!LO:TX:a:t=P:problem:mixed beam	!	!	!	!	!	!	!	!	!	!
8AA/L	.	8e/L	.	8cc#\L	.	8F#/	8d\	(>8cc#\L	(>8ee\L	.
8d\J	.	8f#/J	.	8dd\J	.	8r	8r	8dd\J)	8ff#\J)	.
=21	=21	=21	=21	=21	=21	=21	=21	=21	=21	=21
!LO:TX:a:t=P:problem:mixed beam	!	!LO:TX:a:i:t=ſolo	!	!	!LO:DY:a:t=p&colon;	!	!	!	!	!
8GG/L	2.ryy	(>16bb\LL	.	8d/L	p	8D/L	8D/L	4dd\	4bb\	.
.	.	16gg\	.	.	.	.	.	.	.	.
8G\	.	16ff#\	.	8d/	.	8D/	8D/	.	.	.
.	.	16gg\JJ)	.	.	.	.	.	.	.	.
*	*	*	*	*	*	*	*	*2\right	*	*
!	!	!LO:TX:a:t=|:problem	!	!	!	!	!	!	!	!
8G\	.	16ee\LL	.	8e/	.	8D/	8D/	2b\	2gg\	.
.	.	(>16dd\	.	.	.	.	.	.	.	.
8G\	.	16cc#\	.	8e/	.	8D/	8D/	.	.	.
.	.	16b\JJ)	.	.	.	.	.	.	.	.
8G\	.	(<16a/LL	.	8e/	.	8D/	8D/	.	.	.
.	.	16g/	.	.	.	.	.	.	.	.
8G\J	.	16f#/	.	8e/J	.	8D/J	8D/J	.	.	.
.	.	16e/JJ)	.	.	.	.	.	.	.	.
=22	=22	=22	=22	=22	=22	=22	=22	=22	=22	=22
4A\	2.ryy	(>16f#\LL	.	8f#/L	.	4A/	4A/	8a/L	8ff#\L	.
.	.	16a\)	.	.	.	.	.	.	.	.
.	.	16dd'\	.	16f#/L	.	.	.	16f#/L	16dd\L	.
.	.	16cc#'\JJ	.	16e/JJ	.	.	.	16e/JJ	16cc#\JJ	.
.	.	8qqcc#/	.	(<8qqe/	.	.	.	(<8qqe/	(<8qqcc#/	.
*	*	*2\right	*	*	*	*	*	*	*	*
8d\L	.	2dd\	.	2f#/)	.	8d\L	8d\L	2f#/)	2dd\)	.
8A\J	.	.	.	.	.	8A\J	8A\J	.	.	.
4D\	.	.	.	.	.	4D/	4D/	.	.	.
!LO:LB:g=original	!	!LO:LB:g=original	!	!	!	!LO:LB:g=original	!	!LO:LB:g=original	!LO:LB:g=original	!
=23||;	=23	=23||;	=23	=23||;	=23	=23:||;	=23||;	=23||;	=23||;	=23
*	*	*clefG2	*	*clefG2	*	*clefG2	*clefG2	*clefG2	*clefG2	*
*k[b-]	*	*k[b-]	*	*k[b-]	*	*	*	*k[b-]	*k[b-]	*
*d:	*	*d:	*	*d:	*	*	*	*d:	*d:	*
*M3/4	*M3/4	*M3/4	*	*M3/4	*	*M3/4	*M3/4	*M3/4	*M3/4	*
!	!	!LO:TX:a:t=P:problem:w źródle klucz przed metrum i znakiem przykluczowym	!	!LO:TX:a:t=P:problem:w źródle klucz przed metrum i znakiem przykluczowym	!	!LO:TX:a:t=P:problem:w źródle klucz przed metrum	!LO:TX:a:t=P:problem:w źródle klucz przed metrum	!LO:TX:a:t=P:problem:w źródle klucz przed metrum i znakiem przykuczowym	!LO:TX:a:t=P:problem:w źródle klucz przed metrum i znakiem przykuczowym	!
!	!	!	!	!	!	!	!	!LO:TX:a:t=P:problem:w źródle ta adnotacja zapisana na pięciolinii, przed taktem 23	!	!
!	!	!LO:TX:a:t=P:problem:w źródle ta adnotacja zapisana na pięciolinii, przed taktem 23	!	!	!	!	!LO:TX:a:t=P:problem:w źródle ta adnotacja zapisana na pięciolinii, przed taktem 23	!	!	!
!LO:TX:a:i:t=Trio	!	!LO:TX:a:i:t=Trio	!LO:DY:a:t=p&colon;	!LO:TX:a:i:t=Trio	!	!LO:TX:a:i:t=Trio	!LO:TX:a:i:t=Trio	!LO:TX:a:i:t=Trio	!LO:TX:a:i:t=Trio	!
!	!	!	!	!	!	!LO:TX:a:t=P:problem:w źródle ta adnotacja zapisana na pięciolinii, przed taktem 23	!	!	!	!
!	!	!	!	!LO:TX:a:t=P:problem:w źródle ta adnotacja zapisana na pięciolinii, przed taktem 23	!	!	!	!	!	!
4D\	2.ryy	4f/	p	(>8aa\L	.	4D/	4D/	8r	8r	.
.	.	.	.	8ffn\J)	.	.	.	(>8ff\L	(>8aa\L	.
4D\	.	4f/	.	8r	.	4r	4r	8dd\)	8ff\	.
.	.	.	.	(>8dd\L	.	.	.	8a\J	8dd\J)	.
4r	.	4r	.	8ff\	.	4r	4r	4r	4r	.
.	.	.	.	8aa\J)	.	.	.	.	.	.
=24	=24	=24	=24	=24	=24	=24	=24	=24	=24	=24
4AA/	2.ryy	4e/	.	(>8gg\L	.	4AA/	4A/	8r	8r	.
.	.	.	.	8ee\J)	.	.	.	(>8ee\L	(>8gg\L	.
4AA/	.	4e/	.	8r	.	4r	4r	8cc#X\)	8ee\	.
.	.	.	.	(>8cc#X\L	.	.	.	8a\J	8cc#X\J)	.
4r	.	4r	.	8ee\	.	4r	4r	4r	4r	.
.	.	.	.	8aa\J)	.	.	.	.	.	.
=25	=25	=25	=25	=25	=25	=25	=25	=25	=25	=25
4D\	2.ryy	4A/	.	(>8ff\L	.	4D/	4D/	8r	8r	.
.	.	.	.	8dd\J)	.	.	.	(>8dd\L	(>8ff\L	.
!	!	!	!LO:DY:b:t=p&colon;	!	!	!	!	!	!	!
4D\	.	8r	p	8r	.	4r	4r	8a\	8dd\	.
!	!	!LO:TX:a:i:t=ſolo	!	!	!	!	!	!	!	!
.	.	(>8f\L	.	(<8d/	.	.	.	8f\J)	8a\J)	.
4D\	.	8a\	.	4f/)	.	4r	4r	4r	4r	.
.	.	8dd\J)	.	.	.	.	.	.	.	.
=26	=26	=26	=26	=26	=26	=26	=26	=26	=26	=26
4G\	2.ryy	(<16b-/LL	.	16g/LL	.	2.r	2.r	2.r	2.r	.
.	.	16a/)	.	16f/	.	.	.	.	.	.
!	!	!LO:TX:b:t=|:problem	!	!	!	!	!	!	!	!
.	.	16g/	.	16e/	.	.	.	.	.	.
!	!	!LO:TX:b:t=|:problem	!	!	!	!	!	!	!	!
.	.	16f/JJ	.	16d/JJ	.	.	.	.	.	.
!	!	!	!	!	!	!LO:TX:a:t=i	!	!	!	!
.	.	(<8qqf/	.	8qqd/	.	.	.	.	.	.
8A\L	.	2g/)	.	2c#X/	.	.	.	.	.	.
8E\J	.	.	.	.	.	.	.	.	.	.
4AA/	.	.	.	.	.	.	.	.	.	.
=27||;	=27	=27||;	=27	=27||;	=27	=27:||:	=27||;	=27||;	=27||;	=27
!	!	!	!	!LO:TX:a:i:t=ſolo	!	!LO:TX:a:t=4	!	!	!	!
!	!	!	!	!	!	!LO:N:vis=00	!LO:N:vis=00	!	!	!
8F\L	2.ryy	8a/L	.	4.ccn\	.	0.r	0.r	(>8ccn\L	(>8aa\L	.
!	!	!	!LO:DY:b:t=p&colon;	!	!	!	!	!	!	!
8F\	.	8a/	p	.	.	.	.	8a\J)	8ff\J)	.
8F\	.	8a/	.	.	.	.	.	4r	4r	.
8F\	.	8a/	.	(>16dd\LL	.	.	.	.	.	.
.	.	.	.	16cc\JJ)	.	.	.	.	.	.
8F\	.	8a/	.	4cc\	.	.	.	4r	4r	.
8F\J	.	8a/J	.	.	.	.	.	.	.	.
=28	=28	=28	=28	=28	=28	=28	=28	=28	=28	=28
8F\L	2.ryy	8b-/L	.	4.dd\	.	.	.	(>8ff\L	(>8bb-\L	.
8F\	.	8b-/	.	.	.	.	.	8dd\J)	8gg\J)	.
8F\	.	8b-/	.	.	.	.	.	4r	4r	.
8F\	.	8b-/	.	(>16ff\LL	.	.	.	.	.	.
.	.	.	.	16ee\JJ)	.	.	.	.	.	.
8F\	.	8b-/	.	(>16gg\LL	.	.	.	4r	4r	.
.	.	.	.	16ff\	.	.	.	.	.	.
8F\J	.	8b-/J	.	16ee\	.	.	.	.	.	.
.	.	.	.	16dd\JJ)	.	.	.	.	.	.
=29	=29	=29	=29	=29	=29	=29	=29	=29	=29	=29
8F\L	2.ryy	8a/	.	8cc\	.	.	.	(>8cc\L	(>8aa\L	.
8F\	.	4a/	.	4cc\	.	.	.	8a\J)	8ff\J)	.
8F\	.	.	.	.	.	.	.	8r	8r	.
8F\	.	8a/	.	8cc\	.	.	.	8a/	8cc\	.
8F\	.	(>16b-\LL	.	(>16dd\LL	.	.	.	(>16b-\LL	(>16dd\LL	.
.	.	16cc\	.	16ee\	.	.	.	16cc\	16ee\	.
8F\J	.	16dd\	.	16ff\)	.	.	.	16dd\	16ff\	.
.	.	16b-\JJ)	.	16dd\JJ	.	.	.	16b-\JJ)	16dd\JJ)	.
!	!	!	!	!LO:LB:g=original	!	!	!	!	!	!
=30	=30	=30	=30	=30	=30	=30	=30	=30	=30	=30
4C/	2.ryy	(<16a/LL	.	(>16cc\LL	.	.	.	(<16a/LL	(>16cc\LL	.
.	.	16g/)	.	16b-\)	.	.	.	16g/)	16b-\)	.
!	!	!	!	!	!	!	!	!LO:TX:b:t=|:problem	!LO:TX:a:t=|:problem	!
.	.	16f/	.	16a'\	.	.	.	16f/	16a\	.
!	!	!	!	!	!	!	!	!LO:TX:b:t=|:problem	!LO:TX:a:t=|:problem	!
.	.	16e'/JJ	.	16g'\JJ	.	.	.	16e/JJ	16g\JJ	.
.	.	8qqe/	.	(<8qqg/	.	.	.	8qqe/	(<8qqg/	.
8F\L	.	2f/	.	2f/)	.	.	.	2f/	2f/)	.
8C\J	.	.	.	.	.	.	.	.	.	.
8F\L	.	.	.	.	.	.	.	.	.	.
8E\J	.	.	.	.	.	.	.	.	.	.
!LO:LB:g=original	!	!LO:LB:g=original	!	!	!	!	!	!LO:LB:g=original	!	!
=31	=31	=31	=31	=31	=31	=31	=31	=31	=31	=31
!	!	!LO:TX:a:i:t=ſolo	!	!	!LO:DY:a:t=p&colon;	!	!	!	!	!
4D\	2.ryy	8aa\L	.	4f/	p	4D/	4D/	8r	8r	.
.	.	8ff\J	.	.	.	.	.	(>8ff\L	(>8aa\L	.
4D\	.	8r	.	4f/	.	4r	4r	8dd\	8ff\	.
.	.	(>8dd\L	.	.	.	.	.	8a\J)	8dd\J)	.
4r	.	8ff\	.	4r	.	4r	4r	4r	4r	.
.	.	8aa\J)	.	.	.	.	.	.	.	.
=32	=32	=32	=32	=32	=32	=32	=32	=32	=32	=32
4AA/	2.ryy	(>8gg\L	.	4e/	.	4AA/	4A/	8r	8r	.
.	.	8ee\J)	.	.	.	.	.	(>8ee\L	(>8aa\L	.
4AA/	.	8r	.	4e/	.	4r	4r	8cc#X\)	8ee\	.
.	.	(>8cc#X\L	.	.	.	.	.	8a\J	8cc#X\J)	.
4r	.	8ee\	.	4r	.	4r	4r	4r	4r	.
.	.	8aa\J)	.	.	.	.	.	.	.	.
!	!	!	!	!	!	!	!	!	!LO:LB:g=original	!
=33	=33	=33	=33	=33	=33	=33	=33	=33	=33	=33
4D\	2.ryy	(>8ff\L	.	4A/	.	4D/	4D/	8r	8r	.
.	.	8dd\J)	.	.	.	.	.	(>8dd\L	(>8ff\L	.
4D\	.	8r	.	8r	.	4r	4r	8a\	8dd\	.
!	!	!	!	!LO:TX:a:i:t=ſo.	!	!	!	!	!	!
.	.	(<8d/	.	(>8f\L	.	.	.	8f\J)	8a\J)	.
4D\	.	4f/)	.	8a\	.	4r	4r	4r	4r	.
.	.	.	.	8dd\J)	.	.	.	.	.	.
=34	=34	=34	=34	=34	=34	=34	=34	=34	=34	=34
8G\L	2.ryy	(<16g/LL	.	(<16b-/LL	.	2.r	2.r	2.r	2.r	.
.	.	16e/)	.	16g/)	.	.	.	.	.	.
!	!	!LO:TX:b:t=|:problem	!	!	!	!	!	!	!	!
8A\	.	16d/	.	(<16f/	.	.	.	.	.	.
!	!	!LO:TX:b:t=|:problem	!	!	!	!	!	!	!	!
.	.	16c#X/JJ	.	16e/JJ)	.	.	.	.	.	.
!	!	!	!	!	!	!LO:TX:a:t=i	!	!	!	!
.	.	8qqc#/	.	(<8qqe'/	.	.	.	.	.	.
8d\	.	2d/	.	2d'/)	.	.	.	.	.	.
8A\J	.	.	.	.	.	.	.	.	.	.
4D\	.	.	.	.	.	.	.	.	.	.
!	!	!	!	!	!	!	!	!	!LO:TX:a:t=P:problem:w źródle ta adnotacja umieszczona na pięciolinii, za ostatnim taktem	!
!	!	!	!	!	!	!	!	!LO:TX:a:t=P:problem:w źródle ta adnotacja umieszczona na pięciolinii, za ostatnim taktem	!	!
!	!	!	!	!LO:TX:a:t=P:problem:w źródle ta adnotacja umieszczona na pięciolinii, za ostatnim taktem	!	!	!	!	!	!
!	!	!	!	!LO:TX:b:i:t=Polonese Da Capo.	!	!	!	!	!	!
!LO:TX:a:t=P:problem:w źródle ta adnotacja umieszczona na pięciolinii, za ostatnim taktem	!	!	!	!	!	!LO:TX:a:t=P:problem:w źródle ta adnotacja umieszczona na pięciolinii, za ostatnim taktem	!LO:TX:a:t=P:problem:w źródle ta adnotacja umieszczona na pięciolinii, za ostatnim taktem	!	!	!
!	!	!LO:TX:a:t=P:problem:w źródle ta adnotacja umieszczona na pięciolinii, za ostatnim taktem	!	!	!	!	!	!	!	!
!LO:TX:b:i:t=Polonese Da Capo	!	!LO:TX:b:i:t=Da Capo	!	!	!	!LO:TX:b:i:t=Poloneſ da Capo	!LO:TX:b:i:t=Da Capo	!LO:TX:b:i:t=Da Capo	!LO:TX:b:i:t=Polonese Da Capo	!
==;;	==	==	==	==	==	=:|!	==;	==;;	==;	==
*-	*-	*-	*-	*-	*-	*-	*-	*-	*-	*-
!!!system-decoration: [g1][g2][g3]s8
!!!RDF**kern: > = above
!!!RDF**kern: < = below
!!!EED: Antoni Szymański
!!!EST: 2020-12-04
!!!ENC: Andrzej Borzym
!!!END: 2020-04-30
